assets/efishery/pipa-fill.svg

<svg width="24" height="25" viewBox="0 0 24 25" fill="none" xmlns="http://www.w3.org/2000/svg">
<path fill-rule="evenodd" clip-rule="evenodd" d="M1 5.27344C1 4.72115 1.44772 4.27344 2 4.27344H8C8.55228 4.27344 9 4.72115 9 5.27344C9 5.73963 8.68099 6.13131 8.24936 6.2421C8.24978 6.25249 8.25 6.26294 8.25 6.27344V9.02344H9C9.41421 9.02344 9.75 9.35922 9.75 9.77344V15.2734C9.75 15.6556 9.46265 15.9766 9.08282 16.0189C6.72906 16.2804 5.01421 15.9056 3.86898 15.0657C2.70423 14.2116 2.25 12.9659 2.25 11.7734V6.27344H2C1.44772 6.27344 1 5.82572 1 5.27344ZM11 7.52344C10.5858 7.52344 10.25 7.85922 10.25 8.27344V16.2734C10.25 16.6877 10.5858 17.0234 11 17.0234H13C13.4142 17.0234 13.75 16.6877 13.75 16.2734V8.27344C13.75 7.85922 13.4142 7.52344 13 7.52344H11ZM15 9.52344C14.5858 9.52344 14.25 9.85922 14.25 10.2734V15.2734C14.25 15.6877 14.5858 16.0234 15 16.0234H16.25V18.2734H16C15.4477 18.2734 15 18.7212 15 19.2734C15 19.8257 15.4477 20.2734 16 20.2734H22C22.5523 20.2734 23 19.8257 23 19.2734C23 18.7212 22.5523 18.2734 22 18.2734H21.75V13.7734C21.75 12.129 21.048 11.0288 20.1257 10.3648C19.2417 9.72827 18.2034 9.52344 17.5 9.52344H15Z" fill="#1D1D1D"/>
</svg>

<svg viewBox="0 0 24 25" xmlns="http://www.w3.org/2000/svg">
  <path fill-rule="evenodd" clip-rule="evenodd" d="M1 5.273a1 1 0 0 1 1-1h6a1 1 0 0 1 .25 1.97v2.78H9a.75.75 0 0 1 .75.75v5.5a.75.75 0 0 1-.667.746c-2.354.261-4.069-.113-5.214-.953-1.165-.854-1.619-2.1-1.619-3.293v-5.5H2a1 1 0 0 1-1-1zm10 2.25a.75.75 0 0 0-.75.75v8c0 .415.336.75.75.75h2a.75.75 0 0 0 .75-.75v-8a.75.75 0 0 0-.75-.75h-2zm4 2a.75.75 0 0 0-.75.75v5c0 .415.336.75.75.75h1.25v2.25H16a1 1 0 0 0 0 2h6a1 1 0 1 0 0-2h-.25v-4.5c0-1.644-.702-2.744-1.624-3.408-.884-.637-1.923-.842-2.626-.842H15z"/>
</svg>
